IMB-X-Files/The-Ambassadors-Assets/65fc1b53777e6eaf168222ee_webflow-logo.svg

<svg fill="none" height="12" viewBox="0 0 20 12" width="20" xmlns="http://www.w3.org/2000/svg"><path clip-rule="evenodd" d="m20 0-6.3818 12h-5.99424l2.67074-4.97332h-.1198c-2.20334 2.75119-5.49079 4.56232-10.1749 4.97332v-4.90447s2.99654-.17024 4.75811-1.9517h-4.75811v-5.14373521h5.34761v4.23064521l.12002-.00047 2.18523-4.23017521h4.04424v4.20382521l.12-.00019 2.2672-4.20373z" fill="#fff" fill-rule="evenodd"/></svg>

<svg width="20" height="12" viewBox="0 0 20 12" fill="none" xmlns="http://www.w3.org/2000/svg">
    <path id="Vector" fill-rule="evenodd" clip-rule="evenodd"
        d="M20 0L13.6182 12H7.62396L10.2947 7.02668H10.1749C7.97156 9.77787 4.68411 11.589 0 12V7.09553C0 7.09553 2.99654 6.92529 4.75811 5.14383H0V9.4789e-05H5.34761V4.23074L5.46763 4.23027L7.65286 9.4789e-05H11.6971V4.20392L11.8171 4.20373L14.0843 0H20Z"
        fill="white" />
</svg>
